img/deviantart-1.svg

<?xml version="1.0" encoding="UTF-8" standalone="no"?><svg width="512px" height="130px" viewBox="0 0 512 130" version="1.1" xmlns="http://www.w3.org/2000/svg" xmlns:xlink="http://www.w3.org/1999/xlink" preserveAspectRatio="xMidYMid"><g><path d="M80.1343054,23.6661281 L80.1343054,0.242758621 L56.7103054,0.242758621 L54.3728867,2.60035468 L43.3201182,23.6636059 L39.8445714,26.0085911 L0.396610837,26.0085911 L0.396610837,58.1756847 L22.083468,58.1756847 L24.0148177,60.5118424 L0.396610837,105.643507 L0.396610837,129.067507 L23.8199803,129.067507 L26.1580296,126.710542 L37.2114286,105.64666 L40.6863448,103.302305 L80.1343054,103.302305 L80.1343054,71.1345813 L58.4474483,71.1345813 L56.5179901,68.7826601 L80.1343054,23.6661281" fill="#45AD47"></path><path d="M125.899665,106.71669 L132.554404,94.0150542 L135.624512,106.71669 L125.899665,106.71669 L125.899665,106.71669 Z M126.547862,71.1383645 L96.233931,129.067507 L114.22266,129.067507 L118.62132,120.637793 L138.932966,120.636532 L140.942502,129.067507 L158.92997,129.067507 L145.066246,71.1383645 L126.547862,71.1383645 Z M187.219862,98.2201379 L179.534187,98.2201379 L179.534187,86.5071921 L187.219862,86.5071921 C191.902897,86.5071921 193.681655,88.8502857 193.681655,92.4103251 C193.681655,95.878936 191.902897,98.2201379 187.219862,98.2201379 Z M211.300256,92.1246897 C211.300256,78.8221478 202.303054,71.1383645 189.654384,71.1383645 L162.205005,71.1383645 L162.205005,129.073182 L179.534187,129.073182 L179.534187,112.175921 L183.750621,112.175921 L187.192749,112.166463 L195.582739,129.073182 L213.572099,129.073182 L202.874325,108.631015 C208.121064,105.288512 211.300256,99.6230936 211.300256,92.1246897 Z M213.863409,71.1383645 L213.863409,86.4958424 L230.23732,86.4958424 L230.23732,129.073182 L240.104039,129.073182 L247.553261,114.822305 L247.553261,86.4958424 L262.404414,86.4958424 L270.434365,71.1383645 L213.863409,71.1383645 Z M310.946049,0.242758621 L328.258837,0.242758621 L328.258837,58.1693793 L310.946049,58.1693793 L310.946049,0.242758621 Z M163.685517,0.271763547 L155.905892,15.1235468 L160.682877,15.1235468 C169.211586,15.1235468 174.611547,20.5745813 174.611547,29.1985025 C174.611547,37.7221675 169.211586,43.1750936 160.682877,43.1750936 L155.284177,43.1750936 L155.284177,16.3102266 L138.536355,48.2831133 L138.536355,58.1605517 L161.83803,58.1605517 C180.614305,58.1605517 191.65068,46.8391724 191.65068,29.1978719 C191.65068,12.1404532 181.334384,0.996256158 163.685517,0.271763547 Z M196.229675,58.1693793 L240.446424,58.1693793 L240.446424,42.8144236 L213.541833,42.8144236 L213.541833,36.5544039 L238.27799,36.5544039 L238.27799,21.8564729 L213.541833,21.8564729 L213.541833,15.5983448 L240.446424,15.5983448 L240.446424,0.242758621 L196.229675,0.242758621 L196.229675,58.1693793 Z M271.229478,35.2971034 L262.837596,0.242758621 L244.867153,0.242758621 L258.739074,58.1674877 L277.2253,58.1674877 L307.566975,0.242758621 L289.576355,0.242758621 L271.229478,35.2971034 Z M455.0627,0.238344828 L455.0627,15.5958227 L471.436611,15.5958227 L471.436611,58.1731626 L481.30333,58.1731626 L488.753182,43.9222857 L488.753182,15.5958227 L503.604335,15.5958227 L511.633655,0.238344828 L455.0627,0.238344828 Z M361.294187,35.8217143 L367.938207,23.1314286 L371.007685,35.8217143 L361.294187,35.8217143 Z M361.968236,0.242758621 L331.646108,58.1674877 L349.604571,58.1674877 L354.018995,49.7276847 L374.311094,49.7270542 L376.325675,58.1674877 L394.289182,58.1693793 L380.424828,0.242758621 L361.968236,0.242758621 Z M434.042325,27.6820493 L414.651901,0.242758621 L397.577458,0.242758621 L397.577458,58.1693793 L414.885202,58.1693793 L414.885202,28.7508177 L436.352,58.1693793 L451.35133,58.1693793 L451.35133,0.242758621 L434.042325,0.242758621 L434.042325,27.6820493 Z" fill="#1F211F"></path></g></svg>

<?xml version="1.0" encoding="UTF-8" standalone="no"?>
<svg
   xmlns:dc="http://purl.org/dc/elements/1.1/"
   xmlns:cc="http://creativecommons.org/ns#"
   xmlns:rdf="http://www.w3.org/1999/02/22-rdf-syntax-ns#"
   xmlns:svg="http://www.w3.org/2000/svg"
   xmlns="http://www.w3.org/2000/svg"
   xmlns:sodipodi="http://sodipodi.sourceforge.net/DTD/sodipodi-0.dtd"
   xmlns:inkscape="http://www.inkscape.org/namespaces/inkscape"
   width="79"
   height="130"
   viewBox="0 0 512 130"
   version="1.1"
   preserveAspectRatio="xMidYMid"
   id="svg175"
   sodipodi:docname="deviantart-1.svg"
   inkscape:version="0.92.2 (5c3e80d, 2017-08-06)">
  <metadata
     id="metadata181">
    <rdf:RDF>
      <cc:Work
         rdf:about="">
        <dc:format>image/svg+xml</dc:format>
        <dc:type
           rdf:resource="http://purl.org/dc/dcmitype/StillImage" />
        <dc:title></dc:title>
      </cc:Work>
    </rdf:RDF>
  </metadata>
  <defs
     id="defs179" />
  <sodipodi:namedview
     pagecolor="#ffffff"
     bordercolor="#666666"
     borderopacity="1"
     objecttolerance="10"
     gridtolerance="10"
     guidetolerance="10"
     inkscape:pageopacity="0"
     inkscape:pageshadow="2"
     inkscape:window-width="1366"
     inkscape:window-height="745"
     id="namedview177"
     showgrid="false"
     inkscape:zoom="1.6796875"
     inkscape:cx="256"
     inkscape:cy="65"
     inkscape:window-x="1432"
     inkscape:window-y="127"
     inkscape:window-maximized="1"
     inkscape:current-layer="svg175" />
  <g
     id="g173"
     transform="matrix(6.2260608,0,0,6.5110315,5.6442117,-356.31647)">
    <path
       d="M 80.134305,23.666128 V 0.24275862 h -23.424 L 54.372887,2.6003547 43.320118,23.663606 39.844571,26.008591 H 0.39661084 V 58.175685 H 22.083468 l 1.93135,2.336157 -23.61820716,45.131668 v 23.424 H 23.81998 l 2.33805,-2.35697 11.053399,-21.06388 3.474916,-2.34435 h 39.44796 V 71.134581 H 58.447448 L 56.51799,68.78266 80.134305,23.666128"
       id="path169"
       inkscape:connector-curvature="0"
       style="fill:#45ad47" />
  </g>
</svg>
